X: 1
T: Danny Boy
T: The Londonderry Air
C: Traditional
M: 4/4
L: 1/8
K: G
  "D7"zFGA | "G"B3 A    Be "G7"dB | "C"AG E2 "D7"zGBc | "G"d3 e dB "(A7)"GB | "D"A4
  "D7"zFGA | "G"B3 A    Be "G7"dB | "C"AG "(Am)"E2 "D7"zFGA | "G"B3 c BA "D7"GA | "G"G4
  "D7"zdef | "G"g3 f "C"fe "(D7)"de | "G"dB G2 "D7"zdef | "G"g3 f "C"fe dB | "D"A4
  "D7"zded | "G"b3 a "C"ag       eg | "G"dB G2 "Em"zF"C"GA | "G"Be dB "C"AG "D7"EF | "G"G4 |]
